X:1
T:Ferrier, 77.77
T:Ferrier, 77.77
T:John Bacchus Dykes, 1862
T:Public Domain Courtesy of the Cyber Hymnal™
C:John Bacchus Dykes, 1862
Z:Public Domain
Z:Courtesy of the Cyber Hymnal™
%%score ( 1 2 ) ( 3 4 )
L:1/8
Q:1/4=107
M:4/4
K:D
V:1 treble 
V:2 treble 
V:3 bass 
V:4 bass 
V:1
 F2 [DF]2 [DF]2 D2 | [FA]2 B2 [FA]4 | [CA]2 ([DB][Ec]) [Fd]2 [Ec]2 | [DB]2 ([Ec][DB]) [CA]4 | %4
 [DF]2 [DF]2 [DF]2 D2 | [FA]2 ([EB]c) [Fd]4 | [Bd]2 [GB]2 [FA]2 [DF]2 | [DE]2 ([CF]E) D4 |] %8
V:2
 F2 x2 D2 x2 | x2 (DE) x4 | x8 | x8 | x6 D2 | x8 | x8 | x4 D4 |] %8
V:3
 [D,D]2 [D,A,]2 [D,F,]2 [F,A,]2 | [D,D]2 (B,C) [D,D]4 | [F,A,]2 [E,^G,]2 [D,A,]2 [A,,A,]2 | %3
 [E,^G,]2 [E,G,]2 [A,,A,]4 | [D,A,]2 [A,,A,]2 [D,A,]2 [F,A,]2 | [D,A,]2 [C,E]2 [B,,D]4 | %6
 [G,,D]2 [B,,D]2 [D,D]2 [F,A,]2 | A,2 [A,,G,]2 [D,F,]4 |] %8
V:4
 x8 | x2 G,2 x4 | x8 | x8 | x8 | x8 | x8 | A,2 x6 |] %8

